!!!OTL-incipit: JETZT IST ES BALD SONNTAG, DA BIN ICH GAR ZU FROH
!!!ARE: Europa, Mitteleuropa, Deutschland, Rheinland
!!!SCT: Z0261
!!!TXL: @@DE
!!!YEM: Copyright 1995, estate of Helmut Schaffrath.
**kern	**text
*ICvox	*
*M2/4	*
*k[f#]	*
*G:	*
!LO:TX:a:t=Rheinland.	!
{8d	Jetʒt
=1	=1
4g	iſt
8b/	es
8g	bald
=2	=2
4dd	Sonn-
8cc}	-tag,
{8cc	da
=3	=3
8b/	bin
8b/	ich
8a	gar
8a	ʒu
=4	=4
4g	froh!
8r}	.
{8d	Jetʒt
=5	=5
4g	iſt
8b/	es
8g	bald
=6	=6
4dd	Sonn-
8cc}	-tag,
{8cc	da
=7	=7
8b/	bin
8b/	ich
8a	gar
8a	ʒu
=8	=8
4g	froh!
8r}	.
{8b/	da
=9	=9
8a	ʒieh
8cc	ich
8a	an
8a	mein'
=10	=10
8b	neue
8dd	.
8b}	Schuh,
{8b	mein
=11	=11
8a	run-
8cc	-der
8a	Hut
8a	'hört
=12	=12
8b	auch
8dd	da-
8b}	-ʒu,
{8d	da
=13	=13
8g	geh
8g	ich
8b/	in
8g	das
=14	=14
4dd	Wirthshaus,
8cc}	.
{8cc	und
=15	=15
8b/	laß
8b/	mir
8a	ſchen-
8a	-ken
=16	=16
4g	ein!
8r}	.
==	==
!!!AGN: lyrisches Lied, Romanze
!!!ONB: ESAC (Essen Associative Code) Database: ZUCCAL
!!!AMT: simple duple
!!!AIN: vox
!!!EED: Helmut Schaffrath
!!!EEV: 1.0
!!!GTL: IV. Lyrische Lieder.
!!!URL-scan: https://www.digitale-sammlungen.de/de/view/bsb11160571?page=478
!!!ENC: Anna Maria Matuszewska
!!!EEV: 2025/01/30
*-	*-
